astro/public/img/icons/dt-base-64-encoder-decoder.svg

<?xml version="1.0" encoding="UTF-8"?>
<svg width="70px" height="70px" viewBox="0 0 70 70" version="1.1" xmlns="http://www.w3.org/2000/svg" xmlns:xlink="http://www.w3.org/1999/xlink">
    <title>dt-base-64-encoder-decoder</title>
    <defs>
        <linearGradient x1="13.4623993%" y1="0%" x2="86.5376007%" y2="100%" id="linearGradient-1">
            <stop stop-color="#A4AEBE" offset="0%"></stop>
            <stop stop-color="#2D53F5" offset="100%"></stop>
        </linearGradient>
    </defs>
    <g id="dt-base-64-encoder-decoder" stroke="none" stroke-width="1" fill="none" fill-rule="evenodd">
        <g id="004-binary-code" transform="translate(7.980250, 3.000203)" fill="url(#linearGradient-1)" fill-rule="nonzero">
            <path d="M4.67568553,39.7837083 C4.67568553,40.8028066 5.50188836,41.6290095 6.52098667,41.6290095 C7.54008497,41.6290095 8.3662878,40.8028066 8.3662878,39.7837083 L8.3662878,25.3591124 C8.3662878,24.6126266 7.91677245,23.9399528 7.2271219,23.6543002 C6.53796344,23.3688936 5.74399187,23.5266053 5.21623574,24.0543615 L0.540488703,28.7301085 C-0.180162901,29.4507601 -0.180162901,30.6192048 0.540488703,31.3396103 C1.26114031,32.0602619 2.42958499,32.0602619 3.14999055,31.3396103 L4.67568553,29.8139154 L4.67568553,39.7837083 Z M15.574034,7.8257991 L17.099729,6.30010412 L17.099729,16.2698971 C17.099729,17.2889954 17.9259318,18.1151982 18.9450302,18.1151982 C19.9641285,18.1151982 20.7903313,17.2889954 20.7903313,16.2698971 L20.7903313,1.84530114 C20.7903313,1.09881532 20.3408159,0.426141542 19.6511654,0.140488927 C18.9620069,-0.144917649 18.1680354,0.0127940879 17.6402792,0.540550213 L12.9645322,5.21629725 C12.2438806,5.93694886 12.2438806,7.10539354 12.9645322,7.8257991 C13.6851838,8.5464507 14.8536285,8.5464507 15.574034,7.8257991 Z M36.6193244,23.6543002 C35.930166,23.3688936 35.1361944,23.5266053 34.6084383,24.0543615 L29.9326912,28.7301085 C29.2120396,29.4507601 29.2120396,30.6192048 29.9326912,31.3396103 C30.6533428,32.0602619 31.8217875,32.0602619 32.5421931,31.3396103 L34.0678881,29.8139154 L34.0678881,39.7837083 C34.0678881,40.8028066 34.8940909,41.6290095 35.9131892,41.6290095 C36.9322875,41.6290095 37.7584903,40.8028066 37.7584903,39.7837083 L37.7584903,25.3591124 C37.7584903,24.6128726 37.308975,23.9399528 36.6193244,23.6543002 Z M28.5989076,46.3650364 C27.9097491,46.0796298 27.1157775,46.2373415 26.5880214,46.7650976 L21.9122744,51.4408447 C21.1916228,52.1614963 21.1916228,53.329941 21.9122744,54.0503465 C22.632926,54.7709981 23.8013707,54.7709981 24.5217762,54.0503465 L26.0474712,52.5246515 L26.0474712,57.9860048 C26.0474712,59.0051031 26.873674,59.8313059 27.8927723,59.8313059 C28.9118707,59.8313059 29.7380735,59.0051031 29.7380735,57.9860048 L29.7380735,48.0698486 C29.7380735,47.3233627 29.2885581,46.650689 28.5989076,46.3650364 Z M25.4709991,35.2870785 L25.4709991,29.8559882 C25.4709991,26.3590196 22.6260369,23.5140573 19.1290682,23.5140573 L19.0382794,23.5140573 C15.5413107,23.5140573 12.6963484,26.3590196 12.6963484,29.8559882 L12.6963484,35.2870785 C12.6963484,38.7840472 15.5413107,41.6290095 19.0382794,41.6290095 L19.1290682,41.6290095 C22.6260369,41.6290095 25.4709991,38.7840472 25.4709991,35.2870785 Z M21.7803969,35.2870785 C21.7803969,36.7490491 20.5910388,37.9384072 19.1290682,37.9384072 L19.0382794,37.9384072 C17.5763088,37.9384072 16.3869507,36.7490491 16.3869507,35.2870785 L16.3869507,29.8559882 C16.3869507,28.3940176 17.5763088,27.2046596 19.0382794,27.2046596 L19.1290682,27.2046596 C20.5910388,27.2046596 21.7803969,28.3940176 21.7803969,29.8559882 L21.7803969,35.2870785 Z M48.6580691,23.5138112 L48.5672802,23.5138112 C45.0703116,23.5138112 42.2253493,26.3587735 42.2253493,29.8557422 L42.2253493,35.2868325 C42.2253493,38.7838012 45.0703116,41.6287634 48.5672802,41.6287634 L48.6580691,41.6287634 C52.1550377,41.6287634 55,38.7838012 55,35.2868325 L55,29.8557422 C55,26.3590196 52.1550377,23.5138112 48.6580691,23.5138112 Z M51.3093977,35.2870785 C51.3093977,36.7490491 50.1200396,37.9384072 48.6580691,37.9384072 L48.5672802,37.9384072 C47.1053097,37.9384072 45.9159516,36.7490491 45.9159516,35.2870785 L45.9159516,29.8559882 C45.9159516,28.3940176 47.1053097,27.2046596 48.5672802,27.2046596 L48.6580691,27.2046596 C50.1200396,27.2046596 51.3093977,28.3940176 51.3093977,29.8559882 L51.3093977,35.2870785 Z M31.5531117,0 L31.4623229,0 C27.9653542,0 25.1203919,2.84496227 25.1203919,6.34193095 L25.1203919,11.7730213 C25.1203919,15.2699899 27.9653542,18.1149522 31.4623229,18.1149522 L31.5531117,18.1149522 C32.57221,18.1149522 33.3984128,17.2887494 33.3984128,16.2696511 C33.3984128,15.2505528 32.57221,14.4243499 31.5531117,14.4243499 L31.4623229,14.4243499 C30.0003523,14.4243499 28.8109942,13.2349918 28.8109942,11.7730213 L28.8109942,6.34193095 C28.8109942,4.87996037 30.0003523,3.69060227 31.4623229,3.69060227 L31.5531117,3.69060227 C33.0150823,3.69060227 34.2044404,4.87996037 34.2044404,6.34193095 C34.2044404,7.36102925 35.0306432,8.18723208 36.0497415,8.18723208 C37.0688398,8.18723208 37.8950426,7.36102925 37.8950426,6.34193095 C37.8952887,2.84496227 35.0503264,0 31.5531117,0 Z M48.6580691,0 L48.5672802,0 C45.0703116,0 42.2253493,2.84496227 42.2253493,6.34193095 L42.2253493,11.7730213 C42.2253493,15.2699899 45.0703116,18.1149522 48.5672802,18.1149522 L48.6580691,18.1149522 C52.1550377,18.1149522 55,15.2699899 55,11.7730213 L55,6.34193095 C55,2.84496227 52.1550377,0 48.6580691,0 Z M51.3093977,11.7732673 C51.3093977,13.2352379 50.1200396,14.424596 48.6580691,14.424596 L48.5672802,14.424596 C47.1053097,14.424596 45.9159516,13.2352379 45.9159516,11.7732673 L45.9159516,6.34193095 C45.9159516,4.87996037 47.1053097,3.69060227 48.5672802,3.69060227 L48.6580691,3.69060227 C50.1200396,3.69060227 51.3093977,4.87996037 51.3093977,6.34193095 L51.3093977,11.7732673 Z M10.506345,46.2245474 L10.4155562,46.2245474 C6.91858755,46.2245474 4.07362528,49.0695097 4.07362528,52.5664784 L4.07362528,57.9975687 C4.07362528,61.4945373 6.91858755,64.3394996 10.4155562,64.3394996 L10.506345,64.3394996 C14.0033137,64.3394996 16.848276,61.4945373 16.848276,57.9975687 L16.848276,52.5664784 C16.848522,49.0697557 14.0035598,46.2245474 10.506345,46.2245474 Z M13.1579198,57.9978147 C13.1579198,59.4597853 11.9685617,60.6491434 10.5065911,60.6491434 L10.4158023,60.6491434 C8.95383168,60.6491434 7.76447359,59.4597853 7.76447359,57.9978147 L7.76447359,52.5664784 C7.76447359,51.1045078 8.95383168,49.9151497 10.4158023,49.9151497 L10.5065911,49.9151497 C11.9685617,49.9151497 13.1579198,51.1045078 13.1579198,52.5664784 L13.1579198,57.9978147 Z" id="Combined-Shape"></path>
        </g>
    </g>
</svg>

<svg xmlns="http://www.w3.org/2000/svg" width="70" height="70"><defs><linearGradient id="a" x1="13.462%" x2="86.538%" y1="0%" y2="100%"><stop offset="0%" stop-color="#A4AEBE"/><stop offset="100%" stop-color="#2D53F5"/></linearGradient></defs><path fill="url(#a)" d="M4.676 39.784a1.845 1.845 0 0 0 3.69 0V25.359a1.845 1.845 0 0 0-3.15-1.305L.54 28.73a1.845 1.845 0 1 0 2.61 2.61l1.526-1.526v9.97ZM15.574 7.826 17.1 6.3v9.97a1.845 1.845 0 0 0 3.69 0V1.845A1.845 1.845 0 0 0 17.64.541l-4.675 4.675a1.845 1.845 0 1 0 2.609 2.61Zm21.045 15.828a1.846 1.846 0 0 0-2.01.4l-4.676 4.676a1.845 1.845 0 1 0 2.61 2.61l1.525-1.526v9.97a1.845 1.845 0 0 0 3.69 0V25.359c0-.746-.449-1.419-1.139-1.705ZM28.6 46.365a1.846 1.846 0 0 0-2.011.4l-4.676 4.676a1.845 1.845 0 1 0 2.61 2.61l1.525-1.526v5.461a1.845 1.845 0 0 0 3.691 0V48.07c0-.747-.45-1.42-1.14-1.705Zm-3.13-11.078v-5.431a6.35 6.35 0 0 0-6.342-6.342h-.09a6.35 6.35 0 0 0-6.343 6.342v5.431a6.35 6.35 0 0 0 6.342 6.342h.091a6.35 6.35 0 0 0 6.342-6.342Zm-3.69 0a2.654 2.654 0 0 1-2.652 2.651h-.09a2.654 2.654 0 0 1-2.652-2.65v-5.432a2.654 2.654 0 0 1 2.651-2.651h.091a2.654 2.654 0 0 1 2.651 2.651v5.431Zm26.877-11.773h-.09a6.35 6.35 0 0 0-6.343 6.342v5.43a6.35 6.35 0 0 0 6.342 6.343h.091A6.35 6.35 0 0 0 55 35.287v-5.431a6.35 6.35 0 0 0-6.342-6.342Zm2.651 11.773a2.654 2.654 0 0 1-2.65 2.651h-.092a2.654 2.654 0 0 1-2.651-2.65v-5.432a2.654 2.654 0 0 1 2.651-2.651h.091a2.654 2.654 0 0 1 2.651 2.651v5.431ZM31.553 0h-.09a6.35 6.35 0 0 0-6.343 6.342v5.431a6.35 6.35 0 0 0 6.342 6.342h.091a1.845 1.845 0 0 0 0-3.69h-.09a2.654 2.654 0 0 1-2.652-2.652V6.342a2.654 2.654 0 0 1 2.651-2.651h.091a2.654 2.654 0 0 1 2.651 2.65 1.845 1.845 0 0 0 3.691 0A6.349 6.349 0 0 0 31.553 0Zm17.105 0h-.09a6.35 6.35 0 0 0-6.343 6.342v5.431a6.35 6.35 0 0 0 6.342 6.342h.091A6.35 6.35 0 0 0 55 11.773V6.342A6.35 6.35 0 0 0 48.658 0Zm2.651 11.773a2.654 2.654 0 0 1-2.65 2.652h-.092a2.654 2.654 0 0 1-2.651-2.652V6.342a2.654 2.654 0 0 1 2.651-2.651h.091a2.654 2.654 0 0 1 2.651 2.65v5.432ZM10.506 46.225h-.09a6.35 6.35 0 0 0-6.342 6.341v5.432a6.35 6.35 0 0 0 6.342 6.341h.09a6.35 6.35 0 0 0 6.342-6.341v-5.432a6.349 6.349 0 0 0-6.342-6.341Zm2.652 11.773a2.654 2.654 0 0 1-2.651 2.651h-.091a2.654 2.654 0 0 1-2.652-2.651v-5.432a2.654 2.654 0 0 1 2.652-2.65h.09a2.654 2.654 0 0 1 2.652 2.65v5.432Z" transform="translate(7.98 3)"/></svg>
